dist/img/svg/product_i_3.svg

<svg width="50" height="50" viewBox="0 0 50 50" fill="none" xmlns="http://www.w3.org/2000/svg">
<path d="M15.5841 41.9753V45.0807C15.5841 45.498 15.2512 45.8333 14.8444 45.8333H12.4067C11.9965 45.8333 11.667 45.4946 11.667 45.0807V41.9753M15.5841 8.04518V4.91923C15.5841 4.50187 15.2512 4.16663 14.8444 4.16663H12.4067C11.9965 4.16663 11.667 4.5053 11.667 4.91923V8.02465M34.4165 8.02465V4.91923C34.4165 4.50187 34.7494 4.16663 35.1563 4.16663H37.5939C38.0041 4.16663 38.3337 4.5053 38.3337 4.91923V8.02465M34.4165 41.9547V45.0807C34.4165 45.498 34.7494 45.8333 35.1563 45.8333H37.5939C38.0041 45.8333 38.3337 45.4946 38.3337 45.0807V41.9753" stroke="#6B3D90" stroke-width="2" stroke-linecap="round" stroke-linejoin="round"/>
<path d="M7.57016 15.9187C7.82482 14.6669 8.127 13.4423 8.48352 12.2549C8.89096 10.8912 9.36292 9.57837 9.89599 8.33337L18.5983 8.3639V11.953L22.3197 14.6466V18.5715H19.7697C18.235 22.7238 18.2181 27.2865 19.7256 31.4489L19.7697 31.5744H22.3197V35.5265L18.6255 37.986V41.6667H9.82809C7.77049 36.7783 6.66699 30.9977 6.66699 25.0781C6.66699 23.2258 6.77564 21.3736 6.98955 19.5553M18.6085 25H6.66699M42.4271 34.0814C42.1724 35.3332 41.8702 36.5578 41.5137 37.7451C41.1063 39.1089 40.6343 40.4217 40.1013 41.6667L31.3989 41.6362V38.0471L27.6776 35.3535V31.4286H30.2275C31.7622 27.2763 31.7792 22.7136 30.2716 18.5512L30.2275 18.4256H27.6776V14.4735L31.3717 12.0141V8.33337H40.1726C42.2302 13.2218 43.3337 19.0023 43.3337 24.922C43.3337 26.7742 43.225 28.6265 43.0111 30.4448M31.3921 25H43.3337" stroke="#6C757D" stroke-width="2" stroke-linecap="round" stroke-linejoin="round"/>
</svg>

<svg width="50" height="50" viewBox="0 0 50 50" fill="none" xmlns="http://www.w3.org/2000/svg"><path d="M15.584 41.975v3.106a.746.746 0 01-.74.752h-2.437a.746.746 0 01-.74-.752v-3.106m3.917-33.93V4.92a.746.746 0 00-.74-.752h-2.437c-.41 0-.74.338-.74.752v3.106m22.75 0V4.919c0-.417.332-.752.74-.752h2.437c.41 0 .74.338.74.752v3.106m-3.918 33.93v3.126c0 .417.333.752.74.752h2.438c.41 0 .74-.338.74-.752v-3.106" stroke="#6B3D90" stroke-width="2" stroke-linecap="round" stroke-linejoin="round"/><path d="M7.57 15.919c.255-1.252.557-2.477.914-3.664a36.58 36.58 0 011.412-3.922l8.702.03v3.59l3.722 2.694v3.925h-2.55a18.74 18.74 0 00-.044 12.877l.044.125h2.55v3.952l-3.695 2.46v3.68H9.828C7.77 36.779 6.667 30.999 6.667 25.079c0-1.852.109-3.704.323-5.523M18.608 25H6.667m35.76 9.081a41.568 41.568 0 01-.913 3.664 36.58 36.58 0 01-1.413 3.922l-8.702-.03v-3.59l-3.721-2.694V31.43h2.55a18.74 18.74 0 00.044-12.878l-.044-.125h-2.55v-3.952l3.694-2.46v-3.68h8.8c2.058 4.888 3.162 10.668 3.162 16.588a47.37 47.37 0 01-.323 5.523M31.392 25h11.942" stroke="#6C757D" stroke-width="2" stroke-linecap="round" stroke-linejoin="round"/></svg>
